X:1
T:Danza, danza, fanciulla gentile
T:Danza, danza, fanciulla gentile
T:Francesco Durante (1694-1755)
C:Francesco Durante (1694-1755)
%%score 1 2
L:1/8
M:3/4
K:Bbmin
V:1 treble 
V:2 bass 
V:1
 z6 | z6 | z6 | z6 | z2 Bc de | f2 f2 f2 | d2 Bc de | f2 f2 f2 x6 | d2 ed cB | c2 dc BA | %10
w: ||||Dan- * za *|dan- za, fan-|cuil- la, * al *|mi- o can-|tar; dan- * za, *|dan- za, * fan- *|
 B2 cB A=G | A2 F2 F2 =G2 =E2 E2 | F6 z6 z2 | F=G AB x2 | c2 c2 c2 | A6 | B6 | =G6 x6 | A6 | F6 | %20
w: ciul- la * gen- *|ti- le, al mi- o can-|tar.|Gi- * ra, leg-|ge- ra, sot-|ti-||le|al|suo-|
 =G6 | =E6 | A2 A2 A2 | B2 cB A=G | F4 z2 | z6 | z2 d2 d2 | e2 fe dc | d2 B2 d2 | e2 ed cB | %30
w: no,|al|suo- no del-|l'on- de * del *|mar.||Sen- ti~il|va- go * ru- *|mo- re del-|l'au- ra * scher- *|
 c2 A2 c2 | d2 dc BA | B2 =G2 B2 | c2 cB A=G | A2 cBA=G | ABcBA=G | A4 B2- | B2 =G4 | F2 z2 z2 | %39
w: zo- sa che|par- la * al *|co- re con|lan- gui- * do *|suon, con * * *|lan- * * * * *|* gui-|do suon,||
 z6 | z2 Bc de | f2 f2 f2 x6 | d6 | e6 | c6 | d6 | B6 | c6 | =A6 | B2 D2 D2 | E2 FE DC | %51
w: |e * che~in *|vi- ta~a dan-|zar|sen-|za|sen-|za|po-|sa,|che~in vi- ta~a|* dan- * zar. *|
 B,2 BA GF | G2 E2 G2 | A2 AG FE | F2 D2 F2 | G2 GF ED | E2 C2 E2 | F2 FE DC | D2 B,2 B2 | %59
w: * Dan- * za, *|dan- za, fan-|ciul- la * gen- *|ti- le, fan-|ciul- la * gen- *|ti le, al|mi- o * can- *|ta- re, al|
 B2 =A2 A2 | B2 d2 d2 | e2 fe dc | B4 c2- | c2 =A4 | B6 | z6 | z6 | z6 | z6 |] %69
w: mi- o can-|tar, dan- za,|dan- za, * al *|mi- o|can- tar.||||||
V:2
 z2 Bcde | f2 f2 f2 | d2 Bcde | f2 f2 f2 | d2 B2 B2 | =A2 F2 A2 | B2 b2 B2 | =A2 F2 A2 B4 G2 | %8
 A4 F2 | G4 E2 | F4 A2 | B2 c2 C2 x6 | F2 F=GAB c2 c2 c2 x2 | A2 F2 f2 | f2 =e2 =E2 | F2 f_edc | %16
 d2 B2 d2 | e2 ed cB c2 A2 c2 | d2 dcBA | B2 =G2 B2 | c2 cBA=G | F2 f2 f2 | f2 =e2 =E2 | F2 d2 d2 | %24
 e2 fedc | B4 z2 | =A6 | B6 | =G6 | A6 | F6 | G6 | =E6 | F2 A=gf=e | f=gagf=e | f4 B2- | %36
 B2 !fermata!c4 | F2 Bcde | f2 f2 f2 | d2 B2 b2 | =a2 f2 a2 | b2 b_a_gf g2 e2 g2 | a2 agfe | %43
 f2 d2 f2 | g2 gfed | e2 c2 e2 | f2 fedc | d2 B2 B2 | B2 =A2 A2 | B6 | e6 | c6 | d6 | B6 | c6 | %55
 =A6 | B2 d2 d2 | e2 fedc | B2 b2 B2 | B2 _A2 A2 | _G4 E2- | E2 F4 | B2 Bcde | f2 f2 f2 | d2 Bcde | %65
 f2 f2 F2 | B4 z2 | x6 | x6 |] %69

